X:1
T:Schilflied
T:Schilflied
T:1846
T:Fanny Hensel (1805-1847)
T:Nicolaus Lenau (1802-1850)
C:Fanny Hensel (1805-1847)
Z:Nicolaus Lenau (1802-1850)
%%score [ 1 2 3 4 ]
L:1/8
Q:1/4=50
M:4/4
K:F
V:1 treble nm="Soprano"
V:2 treble nm="Alto"
V:3 treble-8 nm="Tenor"
V:4 bass nm="Bass"
V:1
"^Largo" A3 A G F E D | d2 ^c2 A3 A | B3 B d3 B | (B2 A2) f3 e | d2 ^c2 d3 =c | (c=B) _B2 A2 A2 | %6
w: 1.Drü- ben geht die Son- ne|schei- den, und der|mü- de Tag ent-|schlief. _ Nie- der-|han- gen hier die|Wei- * den in den|
 d4- d d e d | d4 z2 d3/2 d/ | f3 d d3 B | (B2 A2) c3 F | _G2 F2 (_ec) (AF) | (_A_G) F2!f! F2 F2 | %12
w: Teich, _ so still, so|tief, in den|Teich, so still, so|tief. _ Und ich|muss die Lieb- * ste _|mei- * den: quill, o|
 f3 _d c2 (dB) | A2 z2 z4 | z2 =B3/2 B/ B3/2 B/ c3/2 d/ | d2 _e2 z4 | z2 ^c3/2 c/ c3/2 c/ d3/2 e/ | %17
w: Trä- ne, quill her- *|vor.|Trau- rig säu- seln hier die|Wei- den,|trau- rig säu- seln hier die|
 e2 f2 z2 f3/2 e/ | e2 d2 z2 d3/2 c/ | (c2 B2) z2 B3/2 A/ | G3 G e2 d2 | (d4 ^c2) !fermata!z2 || %22
w: Wei- den, und im|Win- de bebt das|Rohr, _ und im|Win- de bebt das|Rohr. _|
 A3 A G F E D | d2 ^c2 A3 A | B3 B d3 B | (B2 A2) f3 e | d2 ^c2 d3 =c | (c=B) _B2 A2 A2 | %28
w: 2.In mein stil- les, tie- fes|Lei- den strahlst du,|Fer- ne, hell und|mild. _ Wie durch|Bin- sen hier und|Wei- * den strahlt des|
 d4- d d e d | d4 z2 d d | (f2 ed ^cd) (FG) | A6 E2 | (G4 ^F4) |] %33
w: A- * bend- ster- nes|Bild, strahlt des|A- * * * * bend- *|ster- nes|Bild. _|
V:2
 F2 E2 D D ^C D | F2 E2 E3 E | E2 F2 G2 E2 | (E2 F2) z2 F F | G2 G2 z2 F F | F2 E2 F2 A2 | %6
w: 1.Drü- ben geht die Son- ne|schei- den, und der|mü- de Tag ent-|schlief. _ Nie- der-|han- gen hier die|Wei- den in den|
 (Ac) (B^F) G4- | G B A E =F2 F3/2 F/ | F3 F E3 E | (E2 F2) z2 _E E | _E2 E2 z2 E E | %11
w: Teich _ so _ still,|_ so still, so tief, in den|Teich, so still, so|tief. _ Und ich|muss die Lieb- ste|
 _E2 E2!f! E2 E2 | _D3 F F2 =E2 | F2 z2 z2 _A3/2 A/ | _A2 A2 A3/2 A/ G3/2 F/ | F2 _E2 z2 G3/2 G/ | %16
w: mei- den: quill, o|Trä- ne, quill her-|vor. Trau- rig|säu- seln, säu- seln hier die|Wei- den, trau- rig|
 G2 B2 B3/2 B/ A3/2 G/ | G2 F2 z2 A3/2 A/ | B2 B2 z2 F3/2 F/ | F4 z2 F3/2 F/ | E3 E G2 G2 | %21
w: säu- seln, säu- seln hier die|Wei- den, und im|Win- de bebt das|Rohr, und im|Win- de bebt das|
 A6 !fermata!z2 || F2 E2 D D ^C D | F2 E2 E3 E | E2 F2 G2 E2 | (E2 F2) z2 F F | G2 G2 z2 F F | %27
w: Rohr.|2:In mein stil- les, tie- fes|Lei- den strahlst du,|Fer- ne, hell und|mild. _ Wie durch|Bin- sen hier und|
 F2 E2 F2 A2 | (Ac) (B^F) (G4- | GB) (AE) !breath!=F2 F F | F8- | F2 F2 F2 E2 | (^C4 D4) |] %33
w: Wei- den strahlt des|A- * bend- * ster-|* * nes _ Bild, strahlt des|A-|* bend- ster- nes|Bild. _|
V:3
 d2 c2 B A B A | ^G2 A2 ^c3 c | ^c2 d2 B2 =c2 | c4 z2 d d | e2 e2 z2 d d | d2 c2 c2 _e2 | d6 d2 | %7
w: 1.Drü- ben geht die Son- ne|Schei- den, und der|mü- de Tag ent-|schlief. Nie- der-|han- gen hier die|Wei- den in den|Teich, so|
 d6 d3/2 d/ | d3 B B3 G | (G2 F2) z2 c c | c2 c2 z2 c c | c2 c2!f! B2 A2 | B3 B _A2 _G2 | %13
w: still, in den|Teich, so still, so|tief. _ Und ich|muss die Lieb- ste|mei- den: quill, o|Trä- ne, quill her-|
 F2 f3/2 f/ f2 f2 | f2 f3/2 f/ f3/2 f/ _e3/2 =B/ | =B3/2 B/ c3/2 _e/ e2 e2 | %16
w: vor. Trau- rig säu- seln|hier, trau- rig säu- seln hier die|Wei- den, trau- rig säu- seln|
 _e2 g3/2 g/ g3/2 g/ f3/2 ^c/ | ^c2 d2 z2 f3/2 f/ | f2 f2 z2 d3/2 d/ | d4 z2 d3/2 d/ | %20
w: hier, trau- rig säu- seln hier die|Wei- den, und im|Win- de bebt das|Rohr, und im|
 d3 d ^c2 d2 | e6 !fermata!z2 || d2 c2 B A B A | ^G2 A2 ^c3 c | ^c2 d2 B2 =c2 | c4 z2 d d | %26
w: Win- de bebt das|Rohr.|2:In mein stil- les, tie- fes|Lei- den strahlst du,|Fer- ne, hell und|mild. Wie durch|
 e2 e2 z2 d d | d2 c2 c2 _e2 | d6 d2 | d6 !breath!d d | d8- | d2 d2 d2 ^c2 | A8 |] %33
w: Bin- sen hier und|Wei- den strahlt des|A- bend-|ster- nes, des|A-|* bend- ster- nes|Bild.|
V:4
 D,2 D,2 D, D, G, F, | A,,2 A,,2 A,3 A, | G,2 F,2 E,2 C,2 | F,4 z2 A, A, | A,2 A,2 z2 B, _A, | %5
w: 1.Drü- ben geht die Son- ne|Schei- den, und der|mü- de Tag ent-|schlief. Nie- der-|han- gen hier die|
 G,2 C,2 F,2 F,2 | B,,6 B,2 | A,6 A,3/2 A,/ | G,3 G, C,3 C, | F,,4 z2 A, A, | B,2 A,2 z2 A,, A,, | %11
w: Wei- den in den|Teich, so|still, in den|Teich, so still, so|tief. Und ich|muss die Lieb- ste|
 B,,2 A,,2!f! G,,2 F,,2 | B,,3 B,, B,,2 B,,2 | F,,2 z2 z4 | z2 G,3/2 G,/ G,3/2 G,/ G,3/2 G,/ | %15
w: mei- den: quill, o|Trä- ne, quill her-|vor.|trau- rig säu- seln hier die|
 G,2 C,2 z4 | z2 A,3/2 A,/ A,3/2 A,/ A,3/2 A,/ | A,2 D,2 [=C,=C]4 | [B,,B,]4 [A,,A,]4 | %19
w: Wei- den,|trau- rig säu- seln hier die|Wei- den, im|Win- de|
 [G,,G,]4 [A,,A,]4 | !breath![B,,B,]4 B,2 B,2 | A,6 !fermata!z2 || D,2 D,2 D, D, G, F, | %23
w: bebt das|Rohr, bebt das|Rohr.|2.In mein stil- les, tie- fes|
 A,,2 A,,2 A,3 A, | G,2 F,2 E,2 C,2 | F,4 z2 A, A, | A,2 A,2 z2 B, _A, | G,2 C,2 F,2 F,2 | %28
w: Lei- den strahlst du,|Fer- ne, hell und|mild. Wie durch|Bin- sen hier und|Wei- den strahlt des|
 B,,6 B,2 | A,6 !breath!^G, G, | (A,2 A,,4) B,,2 | A,,6 A,,2 | D,8 |] %33
w: A- bend-|ster- nes, des|A- * bend-|ster- nes|Bild.|

